X: 4
T:God rest you, merry gentlemen
% Nottingham Music Database
S:Trad
M:4/4
L:1/4
K:Em
E|"Em"EB BA|"Em"GF ED|"Em"EF GA|"B7"B3E|"Em"EB BA|"Em"GF ED|
"Em"EF GA|"B7"B3B|"D7"cA Bc|"G"de "B7"BA|"Em"GE "A7"FG|"D7"A2 GA|"G"B2 "C"cB|
"D"BA "B7"GF|"Em"E2 "A7"(3GFE|"D7"A2 GA|"G"Bc d"Em"e|"A"BA "B7"GF|"Em"E4-|\
"Em"E3||<end>
<start>
